packages/core/assets/Icons/checkbox_empty.svg

<svg viewBox="0 0 20 20" fill="none" xmlns="http://www.w3.org/2000/svg">
<path d="M4.16667 17.5C3.70833 17.5 3.31597 17.3368 2.98958 17.0104C2.66319 16.684 2.5 16.2917 2.5 15.8333V4.16667C2.5 3.70833 2.66319 3.31597 2.98958 2.98958C3.31597 2.66319 3.70833 2.5 4.16667 2.5H15.8333C16.2917 2.5 16.684 2.66319 17.0104 2.98958C17.3368 3.31597 17.5 3.70833 17.5 4.16667V15.8333C17.5 16.2917 17.3368 16.684 17.0104 17.0104C16.684 17.3368 16.2917 17.5 15.8333 17.5H4.16667ZM4.16667 15.8333H15.8333V4.16667H4.16667V15.8333Z" fill="currentColor"/>
</svg>

<svg xmlns="http://www.w3.org/2000/svg" width="20" height="20" fill="none" viewBox="0 0 20 20">
  <path fill="#201F1F" d="M4.167 17.5c-.459 0-.851-.163-1.177-.49a1.605 1.605 0 0 1-.49-1.177V4.167c0-.459.163-.851.49-1.177.326-.327.718-.49 1.177-.49h11.666c.459 0 .851.163 1.177.49.327.326.49.718.49 1.177v11.666c0 .459-.163.851-.49 1.177-.326.327-.718.49-1.177.49H4.167Zm0-1.667h11.666V4.167H4.167v11.666Z"/>
</svg>
